media/img/logos/fakespot/logo.svg

<svg width="106" height="106" viewBox="0 0 106 106" fill="none" xmlns="http://www.w3.org/2000/svg">
<path d="M13.7069 52.9998C13.7069 31.299 31.299 13.7069 52.9998 13.7069C63.1244 13.7069 72.352 17.5305 79.324 23.8272C79.5417 24.0237 79.5706 24.3539 79.3934 24.5879L53.4804 58.8734C53.305 59.1053 52.983 59.1687 52.7329 59.02L35.13 48.5557C34.3166 48.072 33.2653 48.3393 32.7817 49.1527L27.5286 57.9893C27.045 58.8027 27.3125 59.8542 28.1258 60.3378L55.3936 76.5473C56.1437 76.9935 57.1094 76.8043 57.6358 76.1076L96.566 24.5997C97.0441 23.9675 97.026 23.09 96.5224 22.4781L93.9467 19.3473C84.2372 7.54528 69.4968 0 52.9998 0C23.7289 0 0 23.7289 0 52.9998C0 82.2707 23.7289 106 52.9998 106C82.2707 106 106 82.271 106 52.9998C106 46.5571 104.847 40.3701 102.733 34.6434C102.427 33.8145 101.334 33.6718 100.801 34.3766L92.4805 45.3854C92.0063 46.0131 91.8171 46.8085 91.9244 47.5879C92.1675 49.3558 92.293 51.162 92.293 52.9998C92.293 74.701 74.701 92.293 52.9998 92.293C31.2986 92.293 13.7069 74.701 13.7069 52.9998Z" fill="black"/>
</svg>

<svg xmlns="http://www.w3.org/2000/svg" width="106" height="106" fill="none" viewBox="0 0 106 106"><path fill="#000" d="M13.707 53c0-21.701 17.592-39.293 39.293-39.293a39.131 39.131 0 0 1 26.324 10.12.565.565 0 0 1 .07.76L53.48 58.874a.571.571 0 0 1-.747.147L35.13 48.556a1.713 1.713 0 0 0-2.348.597l-5.253 8.836a1.714 1.714 0 0 0 .597 2.349l27.268 16.21c.75.445 1.715.256 2.242-.44L96.566 24.6c.478-.633.46-1.51-.044-2.122l-2.575-3.13C84.237 7.544 69.497 0 53 0 23.729 0 0 23.729 0 53c0 29.27 23.729 53 53 53 29.27 0 53-23.729 53-53 0-6.443-1.153-12.63-3.267-18.357-.306-.828-1.399-.971-1.932-.266l-8.32 11.008a2.975 2.975 0 0 0-.557 2.203c.243 1.768.369 3.574.369 5.412C92.293 74.7 74.701 92.293 53 92.293S13.707 74.701 13.707 53Z"/></svg>
